X:72
T:Cammel’s Rondeau. JMT.072
M:4/4
L:1/8
Q:1/2=90
S:J Moore,Tyneside,1841.(50b)
R:.Rondeau
O:England
A:Northumberland
Z:vmp.Chris Partington
K:D
“Key F in MS”G>AG2g2f2|G>AG2e2d2|Gdcd BdAd|BGEA GFED|!
G>AG2g2f2|G>AG2e2d2|BG=cA dBe=c|B2A2G4:|!
|:dafd Bgec|dafd Bgec|” e in ms”dAeA fAgA|afed dcBA|!
d2df ecBA|d2dfe4|fdge afbg|” Da Capo”f2e2e2d2:|

